d1 $ n "1" # s "dsynth" # amp 1
d1 $ n "[1 2] 3*3 4" # s "dsynth" # amp 1

d1 $ n "<1 [2 1]> [3 4 5 6]/2" # s "dsynth" # amp 2

d1 $ n "<1 [2 1]> [3 4 5 6]/2" # s "dsynth" # speed "<0.1 0.2> 0.3" # amp 2

d2 $ n "<1 [2 1]> [3 4 5 6]/2" # s "dbass" # amp 2

-- ominous slow dsynth
d1 $ n "<1 [2 1]> [3 4 5 6]/2" # speed "<0.1 0.2> 0.3" # s "dsynth"

-- fun
resetCycles
d1 $ n "0 2 [3 5] [4 8]" # sound "cpu" # amp 2
d2 $ n "0(3, 8) 8*8" # s "cpu2" # squiz 5 # amp "1.6 2" -- # cps "0.5 <0.6 0.65 0.7>"
d2 $ n "0(3, 8)" # s "cpu2" # squiz 4 # amp 4

-- interesting wonky slowed down gabba
-- echoy industrial kick, gesaffelstein esque
d3 $ splice 2 "0 1 0 1" $ s "gabba kick" # amp 2.4
-- not sure why this sounds this way! i guess pitch shift plus
d1 $ splice 2 "0 1 0 1" $ s "kick"
d1 $ hurry 0.3 $ s "gabba*8"

-- weirddd
d1 $ slow 2 $ loopAt 2 $ striate 32 $ sound "break:8 break:9"
d1 $ slow 3 $ loopAt 2 $ striate 8 $ sound "break:6 break:7 break:9"

-- with long sample and fast cps, overlaps build up in neat way
-- and stop in neat way too when hushing
setcps 2
d1 $ sound "break:8*4" # begin 0.265 # end 0.6
d1 $ sound "break:8*8" # begin 0.265 # end 0.6
hush

-- chopping sample into smaller bits, playing in reverse
-- interesting increasing stuttering
setcps 0.55
d1 $ slow 2 $ rev $ chop "<16 32 64>" $ sound "break:4"
d1 $ slow 2 $ juxBy "<0.1 0.2 0.4 0.8>" rev $ chop "<8 16 32 64>" $ sound "break:8" # amp 1.1

-- long samples, weird echoing, old sci-fi ish
d2 $ n "<0..30>" # s "bass1"
d1 $ slow 2 $ chop 32 $ n "0..30*2" # s "bass1"
d1 $ slow 2 $ chop 128 $ n "0..30*2" # s "bass1"
d1 $ slow 2 $ chop "256 128 64" $ n "0..30" # s "bass1"
d1 $ slow 2 $ chop "<64 128 256>" $ n "0..30" # s "bass1"
d1 $ slow 2 $ chop "[64, 128, 256]" $ n "0..30" # s "bass1"
-- d1 $ splice 29 "0..30" $ s "bass1"

-- whoaa
d1 $ jux rev $ slow 2 $ chop 128 $ n "0..30*2" # s "bass1"
d1 $ slow 2 $ chop 128 $ n "[<0..30>*2, <0..15>*4]" # s "bass1"

-- slice to cut up a sample, then play weird patterns
setcps 0.55
d1 $ slice 8 "0 1 2*2 3 4*3 5 6*4 7" $ sound "break:4"
d1 $ slice 8 "0 1 2*4 3 4*5 5 6*6 7" $ sound "break:4"
d1 $ slice 8 "0*4 1*2 5*3 3*2 6*1 6*6 6*5 7*2" $ sound "break:4"
d2 $ slice 8 "7*2 6 5 4*4 3 2 1 0*6" $ sound "break:4"

---
d1 $ n "12" # s "toys"  -- longer sample
-- chopping it results in interesting overlap
d1 $ chop 3 $ sound "toys:12"
d1 $ chop 12 $ sound "toys:12"


-- drum and bassy, patterned glitchiness
d1 $ slow 2 $ loopAt 2 $ striate "<2 4> <8 16> <8 16 32>" $ sound "break:8*4"
d1 $ slow 2 $ loopAt 2 $ striate "<2 4> <8 4 16> <8 16 4 32>" $ sound "break:8*4"


-- interesting panning
-- https://club.tidalcycles.org/t/week-4-lesson-1-continuous-patterns-sine-square-tri-saw-and-random-functions/608/12
d1 $ speed (segment "128 64 256 16" $ range 0.5 "<64 128 16 32>" sine) # "breaks125" # legato 1 # pan (fast 4 (sine))


xfadeIn 1 8 $ jux (iter 2) $ loopAt 6 $ chop 1 $ striate 64 $ speed (struct "t(2,7)" $ range 0.7 1 sine) # sound "bev" # gain 0.7 # delay 1 # delaytime 0.675 # delayfb 0.8 # room 0.2
xfadeIn 1 2 $ silence


-- chop up sounds: legato with n<1 takes just first bit
d1 $ n "0..7" # s "kurt"
d1 $ n "0..7" # s "kurt" # legato 1
d1 $ n "0..7" # s "kurt" # legato 0.3


-- fun continuously varying squiz with bit of randomness
-- crush with saw interesting effect
d1 $ juxBy 0.5 (# offset 0.05) $ n "[0*9 1*4 [11 3]*5 [3*7?0.9|~]] 9*8"
    # sound "cpu"
    # squiz (fast "[1|2|3]" $ sine * 5)
    # crush (range 14 5 saw)


-- sometimes with slower speed makes events bleed over
d1 $ sometimesBy 0.3 (# (speed 0.5 # squiz 1)) $ s "kick" >| n "0 5 3 1 ~ 3 2 4"
d1 $ sometimesBy 0.3 (# (speed 0.3 # crush 4)) $ s "kick" >| n "0 5 3 1 ~ 3 2 4"

-- applying stronger glitch over several cycles with increasing frequency
-- using different cycles for speed and crush also interesting
saw2 = slow 3 $ rev $ range 0.00001 1 saw

d1
  $ someCyclesBy (rev saw2 + 0.4)
      (# (speed saw2 # crush (slow 2 $ rev $ range 1 10 saw)))
  $ s "kick" >| n "0*2?0.3 5 3*2?0.6 1 ~ 3 2 4"

-- glitchy harsh slight warble
d1 $ s "kick:1" # speed 0.5 # squiz 2


-- super wonky sample
-- 0 high pitch resonating
-- 1 metallic shake
-- 2 low scifi warble
-- 3 ridiculous boing
-- 4 high scifi zap
-- 5 normalish high hat
-- 6 low static
-- 7 high static
d1 $ n "0 [6?0.7 2] 0 5*2" # s "feelfx"
d1 $ n "0 [1 2] 0 5*2" # s "feelfx"
d1 $ n "0 [[1|6] 7*2?] 0 5*2" # s "feelfx"



--- weird ongoing reverb noise
d1 $ qtrigger 1
    $ struct "t(5,8,<0 4>)"
    $ n "<g'maj b'maj c'maj c'min>"
    # s "superpiano"
    # room 1.5 # sz 0.98



---- weird epic echoiness

d1 $ n "c d c d a5 d a5 d" # s "arp"



---- gets glitchy at high notes

d1 $ n (run 39) # s "acid309"


---- maybe?

d1 $ n "0*3 3*2" # s "cs80lead"
    -- # crush 3
    # vowel "<a o e u>"
    # pF "dtune" "[1 2 3 4]"


--- glitch canon

d1
    $ off "e" (|+ (n "3" # crush 4))
    $ off "e" (|+ (n "12" # crush 4))
    -- $ jux (off "e" rev)
    $ slow 1
    $ n "e g a c c(3,8) [a(3,8)]*3 [g(5,8)]*2 [e(5,8)]*9"
    # s "<kick bass clap>"

d2
    $ off "q" (|+ (n "3" # crush 4))
    $ off "q" (|+ (n "12" # crush 4))
    -- $ jux (off "e" rev)
    $ n "c(3,8) [a(3,8)]*3 [g(5,8)]*2 [e(5,8)]*1"
    # s "<arpy superpiano>"

d1
    $ off "e" (|+ (n "3" # crush 4))
    $ off "e" (|+ (n "12" # crush 4))
    $ slow 2 $ n "c(3,8) [a(3,8)]*2 [g(5,8)]*2 [e(5,8)]*5 e g a c"
    # s "superpiano" # sustain "<1 5>"

d1
    -- $ off "s" (|+ (n "3" # crush 4))
    $ off "s" (|+ (n "<-24 -36 24 36>" # crush 4))
    -- $ off "s" (|+ (n "1"))
    -- $ off "s" (|+ (n "1"))
    -- $ off "s" (|+ (n "1"))
    -- $ off "t" (|+ (n "6"))
    -- $ off "t" (|+ (n "5"))
    -- $ off "t" (|+ (n "4"))
    $ off "s" (|+ (n "4"))
    $ off "s" (|+ (n "4"))
    $ off "s" (|+ (n "4"))
    $ slow 1
    $ n "as g e e3"
    # s "superpiano" # sustain "<0.2 0.05 0.02>"

-- euclidean*9 on its own sounds like noise
d1
    $ n "c(3,8) [a(3,8)]*3 [g(3,8)]*2 [e(3,8)]*9"
    # s "superpiano" # legato "2"

d1
    $ jux (off "e" (|+ (n "4" # crush 2)) )
    $ off "e" (|+ (n "12" # crush 4))
    -- $ off 0.5 rev
    $ slow 2 $ n "c(3,8) [a(3,8)]*3 [g(5,8)]*2 [e(5,8)]*9 e g a c"
    # s "superpiano"
