-- ominous slow dsynth
d1 $ n "<1 [2 1]> [3 4 5 6]/2" # speed "<0.1 0.2> 0.3" # s "dsynth"

-- fun
resetCycles
d1 $ n "0 2 [3 5] [4 8]" # sound "cpu"
d2 $ n "0(3, 8) 8*8" # s "cpu2" # squiz 5 # amp "0.6 1" -- # cps "0.5 <0.6 0.65 0.7>"
d2 $ n "0(3, 8)" # s "cpu2" # squiz 4 # amp 2

-- interesting wonky slowed down gabba
-- echoy industrial kick, gesaffelstein esque
d3 $ splice 2 "0 1 0 1" $ s "gabba kick" # amp 0.4
-- not sure why this sounds this way! i guess pitch shift plus
d1 $ splice 2 "0 1 0 1" $ s "kick"
d1 $ hurry 0.3 $ s "gabba*8"

-- weirddd
d1 $ slow 2 $ loopAt 2 $ striate 32 $ sound "break:8 break:9"
d1 $ slow 3 $ loopAt 2 $ striate 8 $ sound "break:6 break:7 break:9"

-- with long sample and fast cps, overlaps build up in neat way
-- and stop in neat way too when hushing
setcps 2
d1 $ sound "break:8*4" # begin 0.265 # end 0.6
d1 $ sound "break:8*8" # begin 0.265 # end 0.6
hush

-- chopping sample into smaller bits, playing in reverse
-- interesting increasing stuttering
setcps 0.55
d1 $ slow 2 $ rev $ chop "<16 32 64>" $ sound "break:4"
d1 $ slow 2 $ juxBy "<0.1 0.2 0.4 0.8>" rev $ chop "<8 16 32 64>" $ sound "break:8" # amp 1.1

-- long samples, weird echoing, old sci-fi ish
d2 $ n "<0..30>" # s "bass1"
d1 $ slow 2 $ chop 32 $ n "0..30*2" # s "bass1"
d1 $ slow 2 $ chop 128 $ n "0..30*2" # s "bass1"
d1 $ slow 2 $ chop "256 128 64" $ n "0..30" # s "bass1"
d1 $ slow 2 $ chop "<64 128 256>" $ n "0..30" # s "bass1"
d1 $ slow 2 $ chop "[64, 128, 256]" $ n "0..30" # s "bass1"
-- d1 $ splice 29 "0..30" $ s "bass1"

-- whoaa
d1 $ jux rev $ slow 2 $ chop 128 $ n "0..30*2" # s "bass1"
d1 $ slow 2 $ chop 128 $ n "[<0..30>*2, <0..15>*4]" # s "bass1"

-- slice to cut up a sample, then play weird patterns
setcps 0.55
d1 $ slice 8 "0 1 2*2 3 4*3 5 6*4 7" $ sound "break:4"
d1 $ slice 8 "0 1 2*4 3 4*5 5 6*6 7" $ sound "break:4"
d1 $ slice 8 "0*4 1*2 5*3 3*2 6*1 6*6 6*5 7*2" $ sound "break:4"
d2 $ slice 8 "7*2 6 5 4*4 3 2 1 0*6" $ sound "break:4"

---
d1 $ n "12" # s "toys"  -- longer sample
-- chopping it results in interesting overlap
d1 $ chop 3 $ sound "toys:12"
d1 $ chop 12 $ sound "toys:12"


-- drum and bassy, patterned glitchiness
d1 $ slow 2 $ loopAt 2 $ striate "<2 4> <8 16> <8 16 32>" $ sound "break:8*4"
d1 $ slow 2 $ loopAt 2 $ striate "<2 4> <8 4 16> <8 16 4 32>" $ sound "break:8*4"
