-- 2023-10-16


-- interesting panning
-- https://club.tidalcycles.org/t/week-4-lesson-1-continuous-patterns-sine-square-tri-saw-and-random-functions/608/12
d1 $ speed (segment "128 64 256 16" $ range 0.5 "<64 128 16 32>" sine) # "breaks125" # legato 1 # pan (fast 4 (sine)) # amp 0.1

d1 $ speed (segment "128 64 256 16" $ range 0.5 "<64 128 16 32>" sine) # "breaks125" # legato 1 # pan (fast 40 (sine)) # amp 0.1
d1 $ speed (segment "28 4 56 16" $ range 0.5 "<64 128 16 32>" sine) # "breaks125" # legato 1 # pan (fast 40 (sine)) # amp 0.1


-- fun continuously varying squiz with bit of randomness
-- crush with saw interesting effect
d2 $ juxBy 0.5 (# offset 0.05) $ n "[0*9 1*4 [11 3]*5 [3*7?0.9|~]] 9*8"
    # sound "cpu"
    # squiz (fast "[1|2|3]" $ sine * 5)
    # crush (range 14 5 saw) # amp 0.2



d3
  $ someCyclesBy (rev saw2 + 0.4)
      (# (speed saw2 # crush (slow 2 $ rev $ range 1 10 saw)))
  $ s "kick" >| n "0*2?0.3 5 3*2?0.6 1 ~ 3 2 4"


d4 $ n "0 [[1|6] 7*2?] 0 5*2" # s "feelfx"



-- ominous slow dsynth
d1 $ n "<1 [2 1]> [3 4 5 6]/2" # speed "<0.1 0.2> 0.3" # s "dsynth"

---- weird epic echoiness
d1 $ n "c d c d a5 d a5 d" # s "arp"

--- haunted

-- d1 $ slow 1.5 $ note "bf4 bf5 bf4 bf5 a4 a5 a4 a5 d3 d4 d3 d4 d3 d4 d3 d4" # s "notes:7" # amp 1 # squiz 1.1  # crush 3# pan (fast 4 (sine))
