
d1
  $ s "kick" >| n "0*2 5 3*2 1 ~ 3 2 4"
  |> djf 0.8

:t (>|)
:t (|>)

:t djf

:t d1 $ s "kick"
:t n

d1 $ s "kick"

d2
  $ s "kick" >| n "1*2?0.3 5 3*2?0.6 1 ~ 3 2 4"


d2
  $ s "kick" >| n "0*2?0.3 5 3*2?0.6 1 ~ 3 2 4"

d2
  $ s "kick" >| n "0*2?0.3 5 3*2?0.6 1 ~ 3 2 4"
  |> djf 0.9

d2
  $ s "kick" >| n "0*2?0.3 5 3*2?0.6 1 ~ 3 2 4"
  |> shape 0.8


-- glitchy complex thing
d1
  $ someCyclesBy (rev saw2 + 0.4)
      (# (speed saw2 # crush (slow 2 $ rev $ range 1 10 saw)))
  $ s "kick" >| n "0*2?0.3 5 3*2?0.6 1 ~ 3 2 4"
